svg/Pictogram/pictogram-ghs-exclam.svg

<?xml version="1.0" encoding="UTF-8" standalone="no"?>
<svg height="579pt" id="svg2" inkscape:output_extension="org.inkscape.output.svg.inkscape" inkscape:version="0.45.1" preserveAspectRatio="xMidYMid meet" sodipodi:docbase="/home/henning/gefahrstoffbeauftragter/ghs_pictograms" sodipodi:docname="exclam.svg" sodipodi:version="0.32" version="1.0" viewBox="0 0 579 579" width="579pt" xmlns="http://www.w3.org/2000/svg" xmlns:cc="http://web.resource.org/cc/" xmlns:dc="http://purl.org/dc/elements/1.1/" xmlns:inkscape="http://www.inkscape.org/namespaces/inkscape" xmlns:rdf="http://www.w3.org/1999/02/22-rdf-syntax-ns#" xmlns:sodipodi="http://sodipodi.sourceforge.net/DTD/sodipodi-0.dtd" xmlns:svg="http://www.w3.org/2000/svg">
  <metadata>
    <rdf:RDF xmlns:cc="http://web.resource.org/cc/" xmlns:dc="http://purl.org/dc/elements/1.1/" xmlns:rdf="http://www.w3.org/1999/02/22-rdf-syntax-ns#">
      <cc:Work rdf:about="">
        <dc:title></dc:title>
        <dc:description></dc:description>
        <dc:subject>
          <rdf:Bag>
            <rdf:li>unsorted</rdf:li>
          </rdf:Bag>
        </dc:subject>
        <dc:publisher>
          <cc:Agent rdf:about="http://www.openclipart.org/">
            <dc:title>Open Clip Art Library, Source: Wikimedia Commons, Source: Wikimedia Commons, Source: Wikimedia Commons</dc:title>
          </cc:Agent>
        </dc:publisher>
        <dc:creator>
          <cc:Agent>
            <dc:title></dc:title>
          </cc:Agent>
        </dc:creator>
        <dc:rights>
          <cc:Agent>
            <dc:title></dc:title>
          </cc:Agent>
        </dc:rights>
        <dc:date></dc:date>
        <dc:format>image/svg+xml</dc:format>
        <dc:type rdf:resource="http://purl.org/dc/dcmitype/StillImage"/>
        <cc:license rdf:resource="http://en.wikipedia.org/wiki/Public_domain"/>
        <dc:language>en</dc:language>
      </cc:Work>
    </rdf:RDF>
  </metadata>
  <defs id="defs15"/>
  <sodipodi:namedview bordercolor="#666666" borderopacity="1.0" gridtolerance="10.0" guidetolerance="10.0" id="base" inkscape:current-layer="svg2" inkscape:cx="361.875" inkscape:cy="361.875" inkscape:pageopacity="0.0" inkscape:pageshadow="2" inkscape:window-height="649" inkscape:window-width="772" inkscape:window-x="500" inkscape:window-y="0" inkscape:zoom="0.60103627" objecttolerance="10.0" pagecolor="#ffffff"/>
  <path d="M 147.65941,148.01233 L 6,289.67173 L 147.66886,431.34059 L 289.32827,573 L 431.01602,431.31224 L 572.70378,289.62449 L 431.06327,147.98398 C 353.16571,70.086424 289.40386,6.34347 289.37551,6.34347 C 289.34716,6.34347 225.57586,70.095873 147.65941,148.01233 z M 408.62189,170.42535 L 527.82103,289.62449 L 408.57465,408.87087 L 289.32827,528.1078 L 170.13858,408.86142 L 50.948893,289.60559 L 170.13858,170.41591 C 235.69574,104.85874 289.34716,51.22622 289.37551,51.22622 C 289.40386,51.22622 343.06473,104.86819 408.62189,170.42535 z " id="path8" style="fill:#ff0000;stroke:none"/>
  <path d="M 287.24949,142.88152 C 274.89019,143.73193 263.9577,148.09737 257.09773,154.92899 C 254.91501,157.10226 253.5449,158.98262 252.33543,161.4488 C 251.48502,163.17797 251.03147,164.47248 250.66296,166.1922 C 250.42673,167.31663 250.40783,167.56231 250.40783,169.71668 C 250.40783,171.80491 250.42673,172.16397 250.65351,173.40179 C 250.89918,174.78134 270.15624,304.83738 270.43027,306.9823 C 270.61925,308.47524 271.12004,310.44064 271.66808,311.82964 C 274.53113,319.05812 280.86196,324.10389 288.40226,325.19053 C 289.81961,325.3984 292.89999,325.3984 294.31734,325.19053 C 303.6435,323.84877 311.07041,316.30847 312.28934,306.94451 C 312.6295,304.32713 331.82042,174.59236 332.06609,173.3073 C 332.28342,172.07893 332.31177,171.71042 332.31177,169.76392 C 332.31177,167.48672 332.22673,166.693 331.79207,165.08667 C 331.05505,162.38426 329.59045,159.5779 327.66286,157.15896 C 326.13212,155.23136 323.63758,152.9447 321.21864,151.24388 C 315.77602,147.42649 308.20737,144.56344 300.61982,143.45791 C 297.21818,142.96656 295.99926,142.87207 292.06848,142.83427 C 290.09363,142.81538 287.92981,142.84372 287.24949,142.88152 z " id="path10" style="fill:#000000;stroke:none"/>
  <path d="M 289.84796,343.96569 C 282.34545,344.28695 275.23981,347.49017 269.67435,353.07452 C 267.99242,354.75645 266.93414,356.05096 265.61128,358.03525 C 262.54035,362.65581 260.88678,367.13464 260.06471,373.15365 C 259.90408,374.36312 259.89463,379.84354 260.06471,381.1853 C 260.87733,387.7996 263.30572,393.66743 267.32154,398.70375 C 268.29479,399.93212 270.26963,401.98255 271.46966,403.01249 C 275.09807,406.12121 279.49186,408.42677 283.88564,409.52285 C 286.75814,410.24097 288.25108,410.42051 291.3598,410.42051 C 294.42128,410.42051 295.97091,410.24097 298.68278,409.56065 C 306.07189,407.71809 312.71454,402.9558 317.12722,396.33205 C 320.37768,391.43746 322.23913,386.01374 322.73993,380.00417 C 322.87222,378.3884 322.79662,374.28753 322.59819,372.87018 C 322.0407,368.75986 321.04856,365.41492 319.37609,361.96603 C 314.66103,352.28081 305.66559,345.59092 295.47012,344.18302 C 293.98662,343.98459 291.67162,343.8901 289.84796,343.96569 z " id="path12" style="fill:#000000;stroke:none"/>
</svg>

<svg height="723.75" viewBox="0 0 579 579" width="723.75" xmlns="http://www.w3.org/2000/svg"><path d="m147.66 148.01l-141.66 141.66 141.67 141.67 141.66 141.66 141.69-141.69 141.69-141.69-141.64-141.64c-77.898-77.898-141.66-141.64-141.69-141.64-.028 0-63.8 63.752-141.72 141.67m260.96 22.413l119.2 119.2-119.25 119.25-119.25 119.24-119.19-119.25-119.19-119.26 119.19-119.19c65.56-65.56 119.21-119.19 119.24-119.19.028 0 53.689 53.642 119.25 119.2" fill="#f00"/><path d="m287.25 142.88c-12.359.85-23.292 5.216-30.15 12.05-2.183 2.173-3.553 4.054-4.762 6.52-.85 1.729-1.304 3.02-1.672 4.743-.236 1.124-.255 1.37-.255 3.524 0 2.088.019 2.447.246 3.685.246 1.38 19.503 131.44 19.777 133.58.189 1.493.69 3.458 1.238 4.847 2.863 7.228 9.194 12.274 16.734 13.361 1.417.208 4.498.208 5.915 0 9.326-1.342 16.753-8.882 17.972-18.246.34-2.617 19.531-132.35 19.777-133.64.217-1.228.246-1.597.246-3.543 0-2.277-.085-3.071-.52-4.677-.737-2.702-2.202-5.509-4.129-7.928-1.531-1.928-4.03-4.214-6.444-5.915-5.443-3.817-13.01-6.68-20.599-7.786-3.402-.491-4.621-.586-8.551-.624-1.975-.019-4.139.009-4.819.047"/><path d="m289.85 343.97c-7.503.321-14.608 3.524-20.17 9.109-1.682 1.682-2.74 2.976-4.063 4.961-3.071 4.621-4.725 9.099-5.547 15.12-.161 1.209-.17 6.69 0 8.03.813 6.614 3.241 12.482 7.257 17.518.973 1.228 2.948 3.279 4.148 4.309 3.628 3.109 8.02 5.414 12.416 6.51 2.873.718 4.365.898 7.474.898 3.061 0 4.611-.18 7.323-.86 7.389-1.843 14.03-6.605 18.444-13.229 3.25-4.895 5.112-10.318 5.613-16.328.132-1.616.057-5.717-.142-7.134-.557-4.11-1.55-7.455-3.222-10.904-4.715-9.685-13.71-16.375-23.906-17.783-1.483-.198-3.798-.293-5.622-.217"/></svg>
